X: 15292
T: Girls Of Balladoole
R: three-two
M: 3/2
K: Dmajor
f2 d2 d2 A2 d4|f2 d2 d2 A2 c2 e2|
f2 d2 d2 A2 d2 ef|g2 e2 e2 d2 c2 e2:|
D2 D2 F2 A2 d4|A2 A2 A2 G2 F2 D2|
D2 D2 F2 A2 d4|e2 e2 e2 d2 c2 e2:|

